X:1
T:Title
%%score { ( 1 3 4 ) | ( 2 5 ) }
L:1/8
M:4/4
K:Ab
V:1 treble nm="Grand Piano"
V:3 treble 
V:4 treble 
V:2 bass 
V:5 bass 
V:1
 z4 z2 z[Q:1/4=100] [CE] | [CE]2 [DF][EG] [EA]2 [EB][Ec] | c2 B2 A3 [EA] | %3
 [FA]2 [EG][DF] [CE]2 [EA][EA] | [=DA]2 GA B3 [CE] | [CE]2 [DF][EG] [EA]2 [EB][Ec] | c2 B2 A3 A | %7
 A2 GF E c3 |[M:7/8] B2 c B [CA]3 |[M:1/8] [CEc] |[M:4/4] z2 z c z2 z c | %11
 [CEc]2 [B,DB]2 [A,CA]3 [A,CA] | [A,FA]2 [A,EA]2 [A,DA]2 [B,FB]2 | %13
 [A,DA]2 [G,DG]2 [B,DF]2 [B,DE]2 | [CEc]2 [CEc]2 [CAc]3 [CAc] | [DAd]2 [DAd]2 [=DA_c=d]3 [cd] | %16
 [EAce]3 [FA_cf] [EA=ce]3 [FAd] |[M:7/8] [EAc]2 [DEGB]2 [CEA]3 |] %18
V:2
 z4 z2 z [A,,A,] | [A,,A,]2 [D,A,][D,B,] [C,A,]2 [B,,G,][A,,A,] | %2
 [E,A,E]2 [=E,G,D]2 [F,A,C]3 [C,A,] | [D,A,]2 [D,A,][D,A,] [A,,A,]2 [C,A,][C,A,] | %4
 [B,,F,]2 [B,,F,]2 [E,G,D]3 [A,,A,] | [A,,A,]2 [D,A,][D,B,] [C,A,]2 [B,,G,][A,,A,] | %6
 [E,A,E]2 [=E,G,D]2 [F,A,C]3 [F,A,C] | [D,F,D]2 [D,G,D][D,A,D] [E,A,C] [E,A,E]3 | %8
[M:7/8] [E,G,D]2 [E,G,E] [E,G,D] [A,,A,]3 |[M:1/8] [A,,,A,,] | %10
[M:4/4] [A,,,A,,]2 z [CE] [A,,,A,,]2 z [CE] | [E,,E,]2 [=E,,=E,]2 [F,,F,]4 | %12
 [D,,D,]2 [C,,C,]2 [B,,,B,,]2 [D,,D,]2 | [E,,E,]2 [=E,,=E,]2 [F,,F,]2 [G,,G,]2 | %14
 [A,,A,]2 [A,,A,]2 [_G,,_G,]3 [G,,G,] | [F,,F,]2 [F,,F,]2 [=E,,=E,]2 z [=DA] | %16
 [E,,E,]3 [=D,,=D,] [E,,E,]4 |[M:7/8] [E,,E,][F,,F,][G,,G,] [E,,E,] [A,,,A,,]3 |] %18
V:3
 x8 | x8 | x8 | x8 | z2 =D2 z4 | x8 | x8 | x8 |[M:7/8] x7 |[M:1/8] x |[M:4/4] [CEc]4 [CEc]4 | x8 | %12
 x8 | x8 | x8 | x8 | x8 |[M:7/8] x7 |] %18
V:4
 x8 | x8 | x8 | x8 | x8 | x8 | x8 | x8 |[M:7/8] x7 |[M:1/8] x |[M:4/4] z2 A,2 z2 A,2 | x8 | x8 | %13
 x8 | x8 | x8 | x8 |[M:7/8] x7 |] %18
V:5
 x8 | x8 | x8 | x8 | x8 | x8 | x8 | x8 |[M:7/8] x7 |[M:1/8] x |[M:4/4] z2 [C,E,]2 z2 [C,E,]2 | x8 | %12
 x8 | x8 | x8 | z4 z2 [=E,,=E,]2 | x8 |[M:7/8] x7 |] %18

